build/category/ColorOutline.svg

<svg xmlns="http://www.w3.org/2000/svg" fill="none" viewBox="0 0 24 24" focusable="false"><path d="M0 0H24V24H0z"/><path fill="#74767B" fill-rule="evenodd" d="M3.3501 12C3.3501 7.22271 7.22283 3.34998 12.0001 3.34998C16.7774 3.34998 20.6501 7.22271 20.6501 12C20.6501 16.7772 16.7774 20.65 12.0001 20.65C7.22283 20.65 3.3501 16.7772 3.3501 12ZM7.51443 6.59502C7.38991 6.4705 7.39861 6.26556 7.53848 6.15856C8.53177 5.39874 9.72454 4.88654 11.0246 4.71414C11.1991 4.691 11.3501 4.82974 11.3501 5.00576L11.3501 7.61677C11.3501 7.76457 11.2421 7.88918 11.0978 7.92097C10.6129 8.02775 10.1596 8.2188 9.75402 8.47798C9.62952 8.55754 9.46513 8.54572 9.36066 8.44125L7.51443 6.59502ZM8.47814 9.75385C8.5577 9.62934 8.54589 9.46495 8.44141 9.36047L6.59518 7.51425C6.47066 7.38973 6.26572 7.39844 6.15873 7.5383C5.39888 8.53162 4.88665 9.72443 4.71426 11.0245C4.69112 11.199 4.82986 11.35 5.00588 11.35L7.61688 11.35C7.76468 11.35 7.88929 11.2421 7.92108 11.0977C8.02787 10.6128 8.21893 10.1594 8.47814 9.75385ZM7.92108 12.9023C7.8893 12.758 7.76468 12.65 7.61688 12.65L5.00589 12.65C4.82987 12.65 4.69113 12.801 4.71427 12.9755C4.88668 14.2756 5.3989 15.4684 6.15874 16.4617C6.26573 16.6015 6.47067 16.6102 6.59519 16.4857L8.44138 14.6395C8.54586 14.535 8.55767 14.3707 8.47811 14.2461C8.21892 13.8406 8.02787 13.3873 7.92108 12.9023ZM9.75398 15.522C9.62948 15.4425 9.46509 15.4543 9.36061 15.5588L7.51443 17.4049C7.38991 17.5295 7.39862 17.7344 7.53849 17.8414C8.53178 18.6012 9.72455 19.1134 11.0246 19.2858C11.1991 19.3089 11.3501 19.1702 11.3501 18.9942L11.3501 16.3833C11.3501 16.2355 11.2421 16.1109 11.0978 16.0791C10.6129 15.9723 10.1595 15.7812 9.75398 15.522ZM12.9024 16.0791C12.7581 16.1109 12.6501 16.2355 12.6501 16.3833L12.6501 18.9942C12.6501 19.1702 12.8011 19.3089 12.9756 19.2858C14.2757 19.1134 15.4685 18.6012 16.4618 17.8413C16.6016 17.7344 16.6103 17.5294 16.4858 17.4049L14.6397 15.5588C14.5352 15.4543 14.3708 15.4425 14.2463 15.522C13.8407 15.7812 13.3874 15.9723 12.9024 16.0791ZM15.5222 14.2461C15.4426 14.3706 15.4544 14.535 15.5589 14.6395L17.4051 16.4856C17.5296 16.6102 17.7345 16.6015 17.8415 16.4616C18.6013 15.4683 19.1135 14.2756 19.2859 12.9755C19.3091 12.801 19.1703 12.65 18.9943 12.65L16.3834 12.65C16.2356 12.65 16.111 12.758 16.0792 12.9023C15.9724 13.3873 15.7814 13.8406 15.5222 14.2461ZM16.0792 11.0977C16.111 11.2421 16.2356 11.35 16.3834 11.35L18.9943 11.35C19.1703 11.35 19.3091 11.199 19.2859 11.0245C19.1135 9.72446 18.6013 8.53167 17.8415 7.53836C17.7345 7.3985 17.5296 7.38979 17.4051 7.51431L15.5589 9.36049C15.4544 9.46497 15.4426 9.62936 15.5222 9.75386C15.7814 10.1594 15.9724 10.6128 16.0792 11.0977ZM14.2463 8.47799C14.3708 8.55755 14.5352 8.54573 14.6396 8.44125L16.4858 6.59506C16.6103 6.47055 16.6016 6.2656 16.4618 6.15861C15.4685 5.39876 14.2757 4.88654 12.9756 4.71414C12.8011 4.691 12.6501 4.82974 12.6501 5.00576L12.6501 7.61675C12.6501 7.76455 12.7581 7.88916 12.9024 7.92095C13.3874 8.02773 13.8407 8.21879 14.2463 8.47799ZM9.12336 12C9.12336 10.4112 10.4113 9.12324 12.0001 9.12324C13.5889 9.12324 14.8769 10.4112 14.8769 12C14.8769 13.5888 13.5889 14.8768 12.0001 14.8768C10.4113 14.8768 9.12336 13.5888 9.12336 12Z"/></svg>

<svg xmlns="http://www.w3.org/2000/svg" fill="none" viewBox="0 0 24 24" focusable="false"><path fill="#74767B" fill-rule="evenodd" d="M3.35 12c0-4.78 3.87-8.66 8.65-8.66 4.77 0 8.64 3.88 8.64 8.66 0 4.77-3.87 8.65-8.64 8.65-4.78 0-8.65-3.88-8.65-8.65m4.16-5.41a.297.297 0 0 1 .02-.44c1-.76 2.19-1.27 3.49-1.44.17-.02.33.11.33.29v2.61c0 .15-.11.27-.26.31-.48.1-.94.29-1.34.55-.13.08-.29.07-.39-.03zm.96 3.16c.08-.13.07-.29-.03-.39L6.59 7.51a.29.29 0 0 0-.44.02c-.76 1-1.27 2.19-1.44 3.49a.3.3 0 0 0 .29.33h2.61c.15 0 .27-.11.31-.26.1-.48.29-.94.55-1.34m-.55 3.15a.32.32 0 0 0-.31-.25H5c-.17 0-.31.15-.29.32.17 1.3.68 2.49 1.44 3.49.11.14.32.15.44.02l1.85-1.85c.1-.1.11-.26.03-.39-.26-.4-.45-.86-.55-1.34m1.83 2.62c-.13-.08-.29-.07-.39.03L7.51 17.4c-.12.12-.12.33.02.44 1 .76 2.19 1.27 3.49 1.44.17.02.33-.11.33-.29v-2.61c0-.15-.11-.27-.26-.31-.48-.1-.94-.29-1.34-.55m3.15.55c-.15.04-.26.16-.26.31v2.61c0 .18.16.31.33.29 1.3-.17 2.49-.68 3.49-1.44a.29.29 0 0 0 .02-.44l-1.85-1.85c-.1-.1-.26-.11-.39-.03-.4.26-.86.45-1.34.55m2.62-1.83c-.08.13-.07.29.03.39l1.85 1.85c.12.13.33.12.44-.02.76-1 1.27-2.19 1.44-3.49a.286.286 0 0 0-.29-.32h-2.61c-.15 0-.27.1-.31.25-.1.48-.29.94-.55 1.34m.55-3.15c.04.15.16.26.31.26h2.61c.18 0 .31-.16.29-.33-.17-1.3-.68-2.49-1.44-3.49a.29.29 0 0 0-.44-.02l-1.85 1.85c-.1.1-.11.26-.03.39.26.4.45.86.55 1.34m-1.83-2.62c.13.08.29.07.39-.03l1.85-1.85a.29.29 0 0 0-.02-.44c-1-.76-2.19-1.27-3.49-1.44a.294.294 0 0 0-.33.29v2.61c0 .15.11.27.26.31.48.1.94.29 1.34.55M9.12 12A2.88 2.88 0 0 1 12 9.12c1.58 0 2.87 1.29 2.87 2.88 0 1.58-1.29 2.87-2.87 2.87-1.59 0-2.88-1.29-2.88-2.87"/></svg>
